Suru++-Ubuntu/apps/symbolic/kodi-symbolic.svg

<svg xmlns="http://www.w3.org/2000/svg" width="16" height="16" version="1.1" viewBox="0 0 16 16">
 <path style="fill:#808080" d="M 7.984375 0 C 7.724605 0.004 7.4766388 0.10920875 7.2929688 0.29296875 L 5 2.5859375 L 5 9.5859375 L 11.5 3.0859375 L 8.7070312 0.29296875 C 8.5157312 0.10177875 8.254975 -0.00414 7.984375 0 z M 12.914062 4.5 L 9.4140625 8 L 12.914062 11.5 L 15.707031 8.7070312 C 16.097401 8.3165012 16.097401 7.6835688 15.707031 7.2929688 L 12.914062 4.5 z M 3 4.5859375 L 0.29296875 7.2929688 C -0.09740125 7.6834988 -0.09740125 8.3164312 0.29296875 8.7070312 L 3 11.414062 L 3 4.5859375 z M 8 9.4140625 L 4.5 12.914062 L 7.2929688 15.707031 C 7.6834988 16.097401 8.3164313 16.097401 8.7070312 15.707031 L 11.5 12.914062 L 8 9.4140625 z"/>
</svg>

<svg width="16" height="16" version="1.1" viewBox="0 0 16 16" xmlns="http://www.w3.org/2000/svg">
 <path d="m7.984375 0c-0.25977 4e-3 -0.5077362 0.10920875-0.6914062 0.29296875l-2.2929688 2.2929688v7l6.5-6.5-2.7929688-2.7929688c-0.1913-0.19119-0.4520562-0.29710875-0.7226562-0.29296875zm4.929687 4.5-3.4999995 3.5 3.4999995 3.5 2.792969-2.7929688c0.39037-0.39053 0.39037-1.0234624 0-1.4140624l-2.792969-2.7929688zm-9.914062 0.0859375-2.7070312 2.7070313c-0.39037 0.39053-0.39037 1.0234624 0 1.4140624l2.7070312 2.7070308v-6.8281245zm5 4.828125-3.5 3.4999995 2.7929688 2.792969c0.39053 0.39037 1.0234625 0.39037 1.4140624 0l2.7929688-2.792969-3.5-3.4999995z" style="fill:#808080"/>
</svg>
